_includes/icons/color-individual-server.svg

<svg fill="#666" height="50" viewBox="0 0 48 48" width="50" xmlns="http://www.w3.org/2000/svg"><path d="m6 30v10c0 1.105469.894531 2 2 2h32c1.105469 0 2-.894531 2-2v-10z" fill="#78909c"/><path d="m39 8c0-1.105469-.894531-2-2-2h-26c-1.105469 0-2 .894531-2 2l-3 22c0 1.105469.894531 2 2 2h32c1.105469 0 2-.894531 2-2z" fill="#455a64"/><path d="m9 32h22v7h-22z" fill="#263238"/><g fill="#fdd835"><path d="m11 35h2v4h-2z"/><path d="m15 35h2v4h-2z"/><path d="m19 35h2v4h-2z"/><path d="m23 35h2v4h-2z"/><path d="m27 35h2v4h-2z"/></g><path d="m39 37c0 1.105469-.894531 2-2 2s-2-.894531-2-2 .894531-2 2-2 2 .894531 2 2z" fill="#64dd17"/><path d="m28 15c0 2.210938-1.789062 4-4 4-2.210937 0-4-1.789062-4-4 0-2.210937 1.789063-4 4-4 2.210938 0 4 1.789063 4 4" fill="#ffb74d"/><path d="m31 25s-1.9375-4-7-4-7 4-7 4v2h14z" fill="#90caf9"/></svg>

<svg xmlns="http://www.w3.org/2000/svg" viewBox="0 0 48 48" width="50" height="50" fill="#666"><path d="M 6 30 L 6 40 C 6 41.105469 6.894531 42 8 42 L 40 42 C 41.105469 42 42 41.105469 42 40 L 42 30 Z" fill="#78909c"/><path d="M 39 8 C 39 6.894531 38.105469 6 37 6 L 11 6 C 9.894531 6 9 6.894531 9 8 L 6 30 C 6 31.105469 6.894531 32 8 32 L 40 32 C 41.105469 32 42 31.105469 42 30 Z" fill="#455a64"/><path d="M 9 32 L 31 32 L 31 39 L 9 39 Z" fill="#263238"/><path d="M 11 35 L 13 35 L 13 39 L 11 39 Z" fill="#fdd835"/><path d="M 15 35 L 17 35 L 17 39 L 15 39 Z" fill="#fdd835"/><path d="M 19 35 L 21 35 L 21 39 L 19 39 Z" fill="#fdd835"/><path d="M 23 35 L 25 35 L 25 39 L 23 39 Z" fill="#fdd835"/><path d="M 27 35 L 29 35 L 29 39 L 27 39 Z" fill="#fdd835"/><path d="M 39 37 C 39 38.105469 38.105469 39 37 39 C 35.894531 39 35 38.105469 35 37 C 35 35.894531 35.894531 35 37 35 C 38.105469 35 39 35.894531 39 37 Z" fill="#64dd17"/><path d="M 28 15 C 28 17.210938 26.210938 19 24 19 C 21.789063 19 20 17.210938 20 15 C 20 12.789063 21.789063 11 24 11 C 26.210938 11 28 12.789063 28 15" fill="#ffb74d"/><path d="M 31 25 C 31 25 29.0625 21 24 21 C 18.9375 21 17 25 17 25 L 17 27 L 31 27 Z" fill="#90caf9"/></svg>
